X: 16
T: Seanamhac Tube Station
C: John Carty
Z: Erik-Fiddler
S: https://thesession.org/tunes/280#setting54233
R: jig
M: 6/8
L: 1/8
K: Ador
|:AGE EDE|AB/c/d edg|edB (3d/d/d/dB|AGE DE/F/G|
AGE ~E3|AB/c/d e2 g|edB (3d/d/d/dB|1 A2B ~c2B:|2 ABA AB/c/d||
efe edB|ded B2 d|edB (3d/d/d/dB|AGE Dgf|
e(3e/e/e/e edB|ded B2 d|edB d2 B|ABA AB/c/d|
efe edB|~d3 age|edB (3d/d/d/dB|AGE DE/F/G|
AGE AGE|AGE edB|edB edB|A2B ~c2B||

%-------------------- TUNE SEPARATOR --------------------%

